svg/SJJB-OpenStreetMapIcons/sport/gymnasium2.svg

<svg xmlns="http://www.w3.org/2000/svg" viewBox="0 0 580 580"><path d="m66.28 1.768c-41.34 0-64.57 21.371-64.57 65.04v450.12c0 40.844 20.895 62.23 62.19 62.23h452.02c41.31 0 62.23-20.315 62.23-62.23v-450.12c0-42.601-20.922-65.04-63.52-65.04-.004 0-448.5-.143-448.35 0z" fill="#111" stroke="#eee" stroke-width="3.408"/><g stroke="#fff"><path d="m299.28 13.531v53.656h14.563v-53.656h-14.563z" opacity=".8" color="#000" stroke-width="10" fill="#fff"/><path d="m305.78 70.53c-21.513 0-38.938 17.456-38.938 38.969 0 13.867 7.244 26.04 18.16 32.938 3.681-8.955 11.955-16.02 22.06-16.188 9.583-.564 18.972 4.983 23.438 13.344 8.688-7.144 14.25-17.968 14.25-30.09 0-21.513-17.456-38.969-38.969-38.969z" fill="none" stroke-linejoin="round" stroke-linecap="round" stroke-width="14.673"/></g><g fill="#fff"><path d="m364.28 186.72c-10.36 0-19.262 3.327-26.719 10 .22 7.02.474 14.05.813 21.06 4.179 15.444 12.09 29.947 18.03 44.906.46 1.386 1 2.731 1.563 4.094 2.041.292 4.144.438 6.313.438 10.817 0 20.238-3.908 28.25-11.719 8.01-7.81 12-17.31 12-28.531 0-11.208-3.988-20.721-12-28.531-8.01-7.81-17.433-11.718-28.25-11.719"/><g color="#000"><path d="M311.6875 408.75A27.09367 27.09367 0 0 0 295.0625 415.15625L176.81 512.31A27.09367 27.09367 0 1 0 211.21875 554.15625L329.47 457A27.09367 27.09367 0 0 0 311.6875 408.75"/><path d="M346.03125 269.71875A33.09567 33.09567 0 0 0 312.8125 295.21875L279.53 427.84A33.09567 33.09567 0 1 0 343.71875 443.9375L377 311.31A33.09567 33.09567 0 0 0 346.03125 269.71875"/><path d="M309.28125 122.25A21.07286 21.07286 0 0 0 287.28125 144.4375L290.56 227.25A21.07286 21.07286 0 0 0 292.25 234.6875L322.94 306.53A21.07286 21.07286 0 1 0 361.6875 289.96875L332.5 221.66 329.41 142.78A21.07286 21.07286 0 0 0 309.28125 122.25"/></g></g></svg>

<?xml version="1.0" encoding="UTF-8" standalone="no"?>
<!-- Created with Inkscape (http://www.inkscape.org/) -->

<svg
   xmlns:dc="http://purl.org/dc/elements/1.1/"
   xmlns:cc="http://creativecommons.org/ns#"
   xmlns:rdf="http://www.w3.org/1999/02/22-rdf-syntax-ns#"
   xmlns:svg="http://www.w3.org/2000/svg"
   xmlns="http://www.w3.org/2000/svg"
   xmlns:sodipodi="http://sodipodi.sourceforge.net/DTD/sodipodi-0.dtd"
   xmlns:inkscape="http://www.inkscape.org/namespaces/inkscape"
   version="1.0"
   width="580"
   height="580"
   id="svg2"
   sodipodi:version="0.32"
   inkscape:version="0.47 r22583"
   sodipodi:docname="sport_gymnasium2.svg"
   inkscape:output_extension="org.inkscape.output.svg.inkscape">
  <metadata
     id="metadata2975">
    <rdf:RDF>
      <cc:Work
         rdf:about="">
        <dc:format>image/svg+xml</dc:format>
        <dc:type
           rdf:resource="http://purl.org/dc/dcmitype/StillImage" />
        <cc:license
           rdf:resource="http://web.resource.org/cc/PublicDomain" />
        <dc:language>en</dc:language>
        <dc:title></dc:title>
      </cc:Work>
    </rdf:RDF>
  </metadata>
  <sodipodi:namedview
     inkscape:window-height="947"
     inkscape:window-width="1048"
     inkscape:pageshadow="2"
     inkscape:pageopacity="0.0"
     guidetolerance="10.0"
     gridtolerance="10.0"
     objecttolerance="10.0"
     borderopacity="1.0"
     bordercolor="#666666"
     pagecolor="#ffffff"
     id="base"
     inkscape:zoom="0.46083856"
     inkscape:cx="126.04119"
     inkscape:cy="334.66349"
     inkscape:window-x="91"
     inkscape:window-y="25"
     inkscape:current-layer="svg2"
     showgrid="false"
     inkscape:window-maximized="0" />
  <defs
     id="defs4">
    <inkscape:perspective
       sodipodi:type="inkscape:persp3d"
       inkscape:vp_x="0 : 290 : 1"
       inkscape:vp_y="0 : 1000 : 0"
       inkscape:vp_z="580 : 290 : 1"
       inkscape:persp3d-origin="290 : 193.33333 : 1"
       id="perspective2441" />
    <inkscape:perspective
       id="perspective3452"
       inkscape:persp3d-origin="30 : 20 : 1"
       inkscape:vp_z="60 : 30 : 1"
       inkscape:vp_y="0 : 1000 : 0"
       inkscape:vp_x="0 : 30 : 1"
       sodipodi:type="inkscape:persp3d" />
    <symbol
       viewBox="244.5 110 489 219.9"
       id="symbol-university">
      <path
         id="path4460"
         d="M79,43l57,119c0,0,21-96,104-96s124,106,124,106l43-133l82-17L0,17L79,43z" />
      <path
         id="path4462"
         d="M94,176l-21,39"
         stroke-width="20"
         stroke="#000000"
         fill="none" />
      <path
         id="path4464"
         d="M300,19c0,10.5-22.6,19-50.5,19S199,29.5,199,19s22.6-19,50.5-19S300,8.5,300,19z" />
      <path
         id="path4466"
         d="M112,216l-16-38L64,88c0,0-9-8-4-35s16-24,16-24"
         stroke-width="20"
         stroke="#000000"
         ill="none" />
    </symbol>
    <inkscape:perspective
       id="perspective4471"
       inkscape:persp3d-origin="372.04724 : 350.78739 : 1"
       inkscape:vp_z="744.09448 : 526.18109 : 1"
       inkscape:vp_y="0 : 1000 : 0"
       inkscape:vp_x="0 : 526.18109 : 1"
       sodipodi:type="inkscape:persp3d" />
    <inkscape:perspective
       id="perspective4668"
       inkscape:persp3d-origin="6 : 4 : 1"
       inkscape:vp_z="12 : 6 : 1"
       inkscape:vp_y="0 : 1000 : 0"
       inkscape:vp_x="0 : 6 : 1"
       sodipodi:type="inkscape:persp3d" />
    <inkscape:perspective
       id="perspective19499"
       inkscape:persp3d-origin="0.5 : 0.33333333 : 1"
       inkscape:vp_z="1 : 0.5 : 1"
       inkscape:vp_y="0 : 1000 : 0"
       inkscape:vp_x="0 : 0.5 : 1"
       sodipodi:type="inkscape:persp3d" />
  </defs>
  <g
     id="g1327">
    <path
       d="M 66.275,1.768 C 24.94,1.768 1.704,23.139 1.704,66.804 L 1.704,516.927 C 1.704,557.771 22.599,579.156 63.896,579.156 L 515.92,579.156 C 557.227,579.156 578.149,558.841 578.149,516.927 L 578.149,66.804 C 578.149,24.203 557.227,1.768 514.628,1.768 C 514.624,1.768 66.133,1.625 66.275,1.768 z "
       style="fill:#111;stroke:#eee;stroke-width:3.40799999"
       id="path1329" />
  </g>
  <g
     id="layer3"
     inkscape:label="Layout"
     style="display:none;stroke:#757575;stroke-opacity:1"
     transform="matrix(48.14969,0,0,48.14969,-536.27327,-33.306752)">
    <rect
       style="fill:none;stroke:#757575;stroke-width:0.10000000000000001;stroke-miterlimit:4;stroke-dasharray:none;stroke-opacity:1;display:inline"
       id="rect4134"
       width="10"
       height="10"
       x="1"
       y="1" />
    <rect
       style="fill:none;stroke:#757575;stroke-width:0.10000000000000001;stroke-miterlimit:4;stroke-dasharray:none;stroke-opacity:1;display:inline"
       id="rect4136"
       width="8"
       height="8"
       x="2"
       y="2" />
  </g>
  <path
     style="font-size:medium;font-style:normal;font-variant:normal;font-weight:normal;font-stretch:normal;text-indent:0;text-align:start;text-decoration:none;line-height:normal;letter-spacing:normal;word-spacing:normal;text-transform:none;direction:ltr;block-progression:tb;writing-mode:lr-tb;text-anchor:start;opacity:0.8;color:#000000;fill:#ffffff;fill-opacity:1;stroke:#ffffff;stroke-width:10;stroke-miterlimit:4;stroke-opacity:1;stroke-dasharray:none;marker:none;visibility:visible;display:inline;overflow:visible;enable-background:accumulate;font-family:Bitstream Vera Sans;-inkscape-font-specification:Bitstream Vera Sans"
     d="M 299.28125,13.53125 L 299.28125,67.1875 L 313.84375,67.1875 L 313.84375,13.53125 L 299.28125,13.53125 z"
     id="path20035"
     sodipodi:nodetypes="ccccc" />
  <path
     style="fill:none;stroke:#ffffff;stroke-width:14.67295074;stroke-linecap:round;stroke-linejoin:round;stroke-miterlimit:4;stroke-opacity:1;stroke-dasharray:none;stroke-dashoffset:0"
     d="M 305.78125,70.53125 C 284.26821,70.53125 266.84375,87.986963 266.84375,109.5 266.84375,123.36701 274.08767,135.53513 285,142.4375 288.68053,133.4826 296.95454,126.41621 307.0625,126.25 316.64511,125.6857 326.03443,131.23261 330.5,139.59375 339.18755,132.44966 344.75,121.6257 344.75,109.5 344.75,87.986963 327.29429,70.53125 305.78125,70.53125 z"
     id="path2843" />
  <path
     style="font-size:40px;font-style:normal;font-variant:normal;font-weight:normal;font-stretch:normal;text-align:start;line-height:125%;writing-mode:lr-tb;text-anchor:start;fill:#ffffff;fill-opacity:1;stroke:none;font-family:NPSPICT3;-inkscape-font-specification:NPSPICT3"
     d="M 364.28125,186.71875 C 353.92101,186.71912 345.01915,190.04622 337.5625,196.71875 337.78252,203.74204 338.03673,210.76898 338.375,217.78125 342.55353,233.22537 350.46056,247.72779 356.40625,262.6875 356.86658,264.07333 357.4092,265.41816 357.96875,266.78125 360.00995,267.07353 362.11285,267.21881 364.28125,267.21875 375.09797,267.21907 384.51893,263.3106 392.53125,255.5 400.54287,247.69003 404.53088,238.18952 404.53125,226.96875 404.53088,215.76091 400.54287,206.24817 392.53125,198.4375 384.51893,190.62758 375.09797,186.71915 364.28125,186.71875 z"
     id="flowRoot3192" />
  <path
     style="font-size:medium;font-style:normal;font-variant:normal;font-weight:normal;font-stretch:normal;text-indent:0;text-align:start;text-decoration:none;line-height:normal;letter-spacing:normal;word-spacing:normal;text-transform:none;direction:ltr;block-progression:tb;writing-mode:lr-tb;text-anchor:start;color:#000000;fill:#ffffff;fill-opacity:1;stroke:none;stroke-width:54.18192673;marker:none;visibility:visible;display:inline;overflow:visible;enable-background:accumulate;font-family:Bitstream Vera Sans;-inkscape-font-specification:Bitstream Vera Sans"
     d="M 311.6875,408.75 A 27.093672,27.093672 0 0 0 295.0625,415.15625 L 176.8125,512.3125 A 27.093672,27.093672 0 1 0 211.21875,554.15625 L 329.46875,457 A 27.093672,27.093672 0 0 0 311.6875,408.75 z"
     id="path3626" />
  <path
     style="font-size:medium;font-style:normal;font-variant:normal;font-weight:normal;font-stretch:normal;text-indent:0;text-align:start;text-decoration:none;line-height:normal;letter-spacing:normal;word-spacing:normal;text-transform:none;direction:ltr;block-progression:tb;writing-mode:lr-tb;text-anchor:start;color:#000000;fill:#ffffff;fill-opacity:1;stroke:none;stroke-width:66.1847229;marker:none;visibility:visible;display:inline;overflow:visible;enable-background:accumulate;font-family:Bitstream Vera Sans;-inkscape-font-specification:Bitstream Vera Sans"
     d="M 346.03125,269.71875 A 33.095671,33.095671 0 0 0 312.8125,295.21875 L 279.53125,427.84375 A 33.095671,33.095671 0 1 0 343.71875,443.9375 L 377,311.3125 A 33.095671,33.095671 0 0 0 346.03125,269.71875 z"
     id="path3628" />
  <path
     style="font-size:medium;font-style:normal;font-variant:normal;font-weight:normal;font-stretch:normal;text-indent:0;text-align:start;text-decoration:none;line-height:normal;letter-spacing:normal;word-spacing:normal;text-transform:none;direction:ltr;block-progression:tb;writing-mode:lr-tb;text-anchor:start;color:#000000;fill:#ffffff;fill-opacity:1;stroke:none;stroke-width:42.14149857;marker:none;visibility:visible;display:inline;overflow:visible;enable-background:accumulate;font-family:Bitstream Vera Sans;-inkscape-font-specification:Bitstream Vera Sans"
     d="M 309.28125,122.25 A 21.072856,21.072856 0 0 0 287.28125,144.4375 L 290.5625,227.25 A 21.072856,21.072856 0 0 0 292.25,234.6875 L 322.9375,306.53125 A 21.072856,21.072856 0 1 0 361.6875,289.96875 L 332.5,221.65625 329.40625,142.78125 A 21.072856,21.072856 0 0 0 309.28125,122.25 z"
     id="path3630" />
</svg>
